svg/m/VC.svg

<svg width="20" height="15" viewBox="0 0 20 15" fill="none" xmlns="http://www.w3.org/2000/svg">
<g clip-path="url(#clip0_270_60974)">
<rect width="20" height="15" fill="white"/>
<path fill-rule="evenodd" clip-rule="evenodd" d="M5 0H15V15H5V0Z" fill="#FFDC17"/>
<path fill-rule="evenodd" clip-rule="evenodd" d="M15 0H20V15H15V0Z" fill="#5FBF2B"/>
<path fill-rule="evenodd" clip-rule="evenodd" d="M0 0H5V15H0V0Z" fill="#2E42A5"/>
<path fill-rule="evenodd" clip-rule="evenodd" d="M12.329 3.125L10.4289 5.9143L12.329 8.60494L14.2291 5.9143L12.329 3.125ZM7.67327 3.17428L5.625 5.9143L7.52507 8.55577L9.42514 5.9143L7.67327 3.17428ZM8.02696 8.993L10.0752 6.25298L11.8271 8.993L10.0752 11.8132L8.02696 8.993Z" fill="#5FBF2B"/>
</g>
<defs>
<clipPath id="clip0_270_60974">
<rect width="20" height="15" fill="white"/>
</clipPath>
</defs>
</svg>

<svg width="20" height="15" fill="none" xmlns="http://www.w3.org/2000/svg">
  <mask id="a" maskUnits="userSpaceOnUse" x="0" y="0" width="20" height="15">
    <path fill="#fff" d="M0 0h20v15H0z"/>
  </mask>
  <g mask="url(#a)" fill-rule="evenodd" clip-rule="evenodd">
    <path d="M5 0h10v15H5V0z" fill="#FFDC17"/>
    <path d="M15 0h5v15h-5V0z" fill="#5FBF2B"/>
    <path d="M0 0h5v15H0V0z" fill="#2E42A5"/>
    <path d="M12.329 3.125l-1.9 2.79 1.9 2.69 1.9-2.69-1.9-2.79zm-4.656.05l-2.048 2.74 1.9 2.64 1.9-2.64-1.752-2.74zm.354 5.818l2.048-2.74 1.752 2.74-1.752 2.82-2.048-2.82z" fill="#5FBF2B"/>
  </g>
</svg>
